X:436
T:B436-  A Soldier and a Sailor
Q:1/4=120
L:1/4
M:6/4
K:Bb
D|(DF)B(Bc)d|B3F2F|(FB)d(de)f|d3B2c|\
(de)f(fe)d|g3G2A|(Bc)d(dc)B|f3F2G|\
(AB)cc2d|F3zzA|(AB)cc2f|f3zz||c|\
(cd)cc2d|e3e2f|(g_a)gf2e|d3d2e|\
(fg)fe2d|c3(de)f|(gf)e(dc)B|A3F2f|\
(ga)ba2b|b3zzc|(de)f(dc)B|(B3B2)|]
